X: 1619
T: Galway Bay
R:hornpipe
N:"Collected by F. O'Neill"
B:O'Neill's 1619
Z:Transcribed by Michael Hogan
M:C|
L:1/8
K:Gm
(GA) | BABc dcd^f | g^fga =fabg | fdbg fdcd | BAG^F GFDF |
G2 (GA) BABG | F2 (FG) AGFD | GABc dcBA | B2 G2 G2 :|
|: g2 | gfd^f gabg | gfdf GFDF | BABc dcd=e | fcdB AGFD |
G^FGA BABc | BFdB AFec | d^fga bag=f | d2 g2 g2 :||


